X:159
T:Trifle, The
M:9/8
L:1/8
B:Thompson's Compleat Collection of 200 Favourite Country Dances, vol. 3 (London, 1773)
Z:Transcribed and edited by Flynn Titford-Mock, 2007
Z:abc's:AK/Fiddler's Companion
K:D
D | F>GA dBG AFD | EFG efg "tr"c2A | F>GA B/c/dB AFD | FAF Edc d2 :|
|: g | f>ed (f/g/a)f ecA | BGB efg c2A | FDF ABc def | Bgf edc d2 :|

